public/img/general/logos/nissan.svg

<svg width="67" height="47" viewBox="0 0 67 47" fill="none" xmlns="http://www.w3.org/2000/svg">
<path fill-rule="evenodd" clip-rule="evenodd" d="M2.08422 14.1244C1.83028 14.1203 1.57815 14.1677 1.34304 14.2637C1.10792 14.3597 0.894694 14.5024 0.716226 14.6831C0.499361 14.873 0.32387 15.1054 0.200657 15.366C0.0774444 15.6266 0.00914382 15.9098 0 16.1979L0 30.0461C0.00164991 30.5605 0.20628 31.0534 0.5694 31.4177C0.75892 31.6326 0.992012 31.8048 1.25319 31.9227C1.51437 32.0407 1.79765 32.1017 2.08422 32.1017H65.0584C65.3218 32.0908 65.5799 32.0242 65.8157 31.9063C66.0515 31.7884 66.2596 31.6219 66.4264 31.4177C66.7845 31.2171 66.9993 30.7301 66.9993 30.0461V16.18C67.0132 15.6196 66.8076 15.076 66.4264 14.6652C66.2451 14.4895 66.031 14.3513 65.7962 14.2585C65.5615 14.1658 65.3107 14.1202 65.0584 14.1244H2.08422ZM16.3514 17.9777H19.2163V28.2484H16.3514V17.9777ZM3.71005 17.9777H8.39058L11.5277 25.7846V17.9777H14.4105V28.2484H9.87317L6.59286 20.1729V28.2484H3.72796V17.9777H3.71005ZM23.6355 17.9777H29.5443V20.2875H23.768V21.942H26.7654C29.2471 21.942 30.4754 22.9698 30.4754 25.1113C30.4931 25.9568 30.1986 26.7792 29.6482 27.4211C29.0838 27.9336 28.3546 28.227 27.5926 28.2484H20.9997V25.9386H27.4458V24.2841H24.3123C23.1413 24.2841 22.2567 23.9976 21.6873 23.4568C21.1179 22.9161 20.8851 22.0244 20.8851 20.8605C20.8851 19.6967 21.0857 19.0055 21.5441 18.6617C22.0275 18.1783 22.7115 17.9777 23.6247 17.9777H23.6355ZM39.9582 17.9777V20.2875H34.1855V21.942H37.1793C39.661 21.942 40.8893 22.9698 40.8893 25.1113C40.8984 25.5402 40.8196 25.9665 40.6576 26.3638C40.4956 26.761 40.2539 27.1209 39.9475 27.4211C39.683 27.6968 39.363 27.913 39.0086 28.0557C38.6542 28.1983 38.2736 28.264 37.8919 28.2484H31.5856V25.9386H37.8919V24.2841H34.7369C33.4513 24.2841 32.4808 23.926 31.872 23.1703C31.37 22.5081 31.1165 21.6906 31.1558 20.8605C31.1558 19.8327 31.4423 19.07 31.9831 18.6617C32.4665 18.1783 33.1541 17.9777 34.0386 17.9777H39.9582ZM44.209 17.9777H48.4598L52.1699 28.2484H49.1474L48.6031 26.3361H44.1983L43.6575 28.2484H40.6315L44.2126 17.9777H44.209ZM52.7142 17.9777H57.5344L60.5211 25.7846V17.9777H63.5471V28.2484H59.0385L55.5827 20.1729V28.2484H52.7178V17.9777H52.7142Z" fill="white"/>
<path fill-rule="evenodd" clip-rule="evenodd" d="M45.0255 24.1408H47.7651L46.3971 20.2875L45.0255 24.1408Z" fill="white"/>
<path fill-rule="evenodd" clip-rule="evenodd" d="M21.4008 3.58155C17.825 5.81525 14.9322 8.98924 13.0389 12.7564H54.075C52.2257 8.91406 49.3237 5.67559 45.7064 3.41749C42.0892 1.1594 37.9053 -0.0255513 33.6411 0.00041787C29.2996 -0.0216816 25.0458 1.22283 21.4008 3.58155Z" fill="white"/>
<path fill-rule="evenodd" clip-rule="evenodd" d="M13.0389 33.4696C14.922 37.2475 17.8167 40.4287 21.4008 42.6588C25.0654 44.9595 29.3144 46.1578 33.6411 46.111C37.9589 46.158 42.1987 44.9594 45.8528 42.6588C49.6201 40.2057 52.3597 37.1224 54.0894 33.4696H13.0389Z" fill="white"/>
</svg>

<svg width="67" height="47" fill="none" xmlns="http://www.w3.org/2000/svg"><path fill-rule="evenodd" clip-rule="evenodd" d="M2.084 14.124a1.88 1.88 0 00-1.368.56A2.102 2.102 0 000 16.197v13.848c.002.515.206 1.007.57 1.372a2.02 2.02 0 001.514.684h62.974a1.866 1.866 0 001.368-.684c.358-.2.573-.688.573-1.372V16.18a2.149 2.149 0 00-.573-1.515 1.92 1.92 0 00-1.368-.54H2.084zm14.267 3.854h2.865v10.27h-2.865v-10.27zm-12.64 0h4.68l3.137 7.807v-7.807h2.883v10.27H9.873l-3.28-8.075v8.075H3.728v-10.27H3.71zm19.925 0h5.908v2.31h-5.776v1.654h2.997c2.482 0 3.71 1.028 3.71 3.17a3.438 3.438 0 01-.827 2.31 3.191 3.191 0 01-2.055.826H21v-2.31h6.446v-1.654h-3.134c-1.17 0-2.055-.286-2.625-.827-.57-.54-.802-1.433-.802-2.597 0-1.163.2-1.854.66-2.198.482-.484 1.166-.684 2.08-.684h.01zm16.322 0v2.31h-5.773v1.654h2.994c2.482 0 3.71 1.028 3.71 3.17a3.14 3.14 0 01-.942 2.31 2.697 2.697 0 01-2.055.826h-6.306v-2.31h6.306v-1.654h-3.155c-1.286 0-2.256-.358-2.865-1.114a3.546 3.546 0 01-.716-2.31c0-1.027.286-1.79.827-2.198.484-.484 1.171-.684 2.056-.684h5.92zm4.251 0h4.25l3.71 10.27h-3.022l-.544-1.912h-4.405l-.54 1.912h-3.026l3.58-10.27h-.003zm8.505 0h4.82l2.987 7.807v-7.807h3.026v10.27H59.04l-3.456-8.075v8.075h-2.865v-10.27h-.004z" fill="#fff"/><path fill-rule="evenodd" clip-rule="evenodd" d="M45.026 24.14h2.74l-1.369-3.852-1.371 3.853zM21.4 3.582a22.99 22.99 0 00-8.361 9.174h41.036A22.525 22.525 0 0033.641 0a22.321 22.321 0 00-12.24 3.582zM13.039 33.47a22.805 22.805 0 008.362 9.189 22.562 22.562 0 0012.24 3.452 22.461 22.461 0 0012.212-3.452c3.767-2.453 6.507-5.537 8.236-9.19H13.04z" fill="#fff"/></svg>
